X:1
T:The Crack Was Ninety In The Isle Of Man
M:4/4
L:1/4
K:G
 D2 D3/2 E/2| G G G2| D3/2 D/2 D E| G/2 G3/2 G2| A3/2 A/2 A G| A2 G A|\
 B G G F| E G3| D D D/2D/2 E| G G/2G/2 G2| D/2D/2 D D3/2 E/2| G G G2|\
 A3/2 A/2 A A| z G/2A/2 B F| G F E G| G4| D/2D/2 D D C| D2 G- A| B B B B|\
 c3/2 A/2 G F| G4|
